src/icons/search.svg

<svg width="42" height="42" viewBox="0 0 42 42" fill="none" xmlns="http://www.w3.org/2000/svg">
<path d="M27.125 24.5L25.6841 23.0591C25.4559 22.8309 25.07 23.0336 25.1282 23.3509C25.1782 23.6227 25.5178 23.7127 25.685 23.4927C27.1396 21.5795 28 19.197 28 16.625C28 10.3425 22.9075 5.25 16.625 5.25C10.3425 5.25 5.25 10.3425 5.25 16.625C5.25 22.9075 10.3425 28 16.625 28C19.1606 28 21.512 27.1637 23.4113 25.7464C23.629 25.5839 23.5093 25.2525 23.2376 25.2525C22.9719 25.2525 22.8435 25.578 23.0378 25.7594L24.5 27.125L31.9449 34.5551C32.6659 35.2746 33.8335 35.274 34.5537 34.5537C35.274 33.8335 35.2746 32.6659 34.5551 31.9449L27.125 24.5ZM16.625 24.5C12.2675 24.5 8.75 20.9825 8.75 16.625C8.75 12.2675 12.2675 8.75 16.625 8.75C20.9825 8.75 24.5 12.2675 24.5 16.625C24.5 20.9825 20.9825 24.5 16.625 24.5Z" fill="#6590FD"/>
</svg>

<?xml version="1.0" encoding="utf-8"?>
<!-- Generator: Adobe Illustrator 23.0.1, SVG Export Plug-In . SVG Version: 6.00 Build 0)  -->
<svg version="1.1" id="Layer_1" xmlns="http://www.w3.org/2000/svg" xmlns:xlink="http://www.w3.org/1999/xlink" x="0px" y="0px"
	 viewBox="0 0 42 42" style="enable-background:new 0 0 42 42;" xml:space="preserve">
<style type="text/css">
	.st0{fill:#12131D;}
</style>
<path class="st0" d="M27.1,24.5l-1.4-1.4c-0.2-0.2-0.6,0-0.6,0.3c0,0.3,0.4,0.4,0.6,0.1c1.5-1.9,2.3-4.3,2.3-6.9
	c0-6.3-5.1-11.4-11.4-11.4S5.2,10.3,5.2,16.6S10.3,28,16.6,28c2.5,0,4.9-0.8,6.8-2.3c0.2-0.2,0.1-0.5-0.2-0.5
	c-0.3,0-0.4,0.3-0.2,0.5l1.5,1.4l7.4,7.4c0.7,0.7,1.9,0.7,2.6,0c0.7-0.7,0.7-1.9,0-2.6L27.1,24.5z M16.6,24.5
	c-4.4,0-7.9-3.5-7.9-7.9s3.5-7.9,7.9-7.9s7.9,3.5,7.9,7.9S21,24.5,16.6,24.5z"/>
</svg>
